icons/package-dependencies-24.svg

<svg xmlns="http://www.w3.org/2000/svg" width="24" height="24" viewBox="0 0 24 24"><path fill-rule="evenodd" d="M9.126.64a1.75 1.75 0 011.75 0l8.25 4.762c.103.06.199.128.286.206a.748.748 0 01.554.96c.023.113.035.23.035.35v3.332a.75.75 0 01-1.5 0V7.64l-7.75 4.474V22.36a.75.75 0 01-1.125.65l-8.75-5.052a1.75 1.75 0 01-.875-1.515V6.917c0-.119.012-.236.035-.35a.748.748 0 01.554-.96 1.75 1.75 0 01.286-.205L9.126.639zM1.501 7.638v8.803c0 .09.048.172.125.216l7.625 4.402v-8.947l-7.75-4.474zm8.5 3.175L2.251 6.34l7.625-4.402a.25.25 0 01.25 0l7.625 4.402-7.75 4.474z"/><path d="M16.617 17.5l2.895-2.702a.75.75 0 00-1.024-1.096l-4.285 4a.75.75 0 000 1.096l4.285 4a.75.75 0 101.024-1.096L16.617 19h6.633a.75.75 0 000-1.5h-6.633z"/></svg>

<svg xmlns="http://www.w3.org/2000/svg" width="24" height="24" viewBox="0 0 24 24">
  <defs/>
  <path d="M9.126,0.64 C9.667,0.327 10.335,0.327 10.876,0.64 L19.126,5.402 C19.229,5.462 19.325,5.53 19.412,5.608 C19.618,5.653 19.796,5.782 19.902,5.965 C20.007,6.148 20.031,6.367 19.966,6.568 C19.989,6.681 20.001,6.798 20.001,6.918 L20.001,10.25 C20.001,10.664 19.665,11 19.251,11 C18.837,11 18.501,10.664 18.501,10.25 L18.501,7.64 L10.751,12.114 L10.751,22.36 C10.751,22.628 10.608,22.876 10.376,23.01 C10.144,23.144 9.858,23.144 9.626,23.01 L0.876,17.958 C0.335,17.645 0.001,17.068 0.001,16.443 L0.001,6.917 C0.001,6.798 0.013,6.681 0.036,6.567 C-0.029,6.366 -0.005,6.147 0.1,5.964 C0.206,5.781 0.384,5.652 0.59,5.607 C0.678,5.529 0.774,5.461 0.876,5.402 L9.126,0.639 Z M10.001,10.813 L10.001,10.814 L17.751,6.34 L10.126,1.938 C10.049,1.893 9.953,1.893 9.876,1.938 L2.251,6.34 Z M1.501,7.638 L1.501,16.441 C1.501,16.531 1.549,16.613 1.626,16.657 L9.251,21.059 L9.251,12.112 Z"/>
  <path d="M16.617,17.5 L19.512,14.798 A0.75 0.75 0 0 0 18.488,13.702 L14.203,17.702 A0.75 0.75 0 0 0 14.203,18.798 L18.488,22.798 A0.75 0.75 0 1 0 19.512,21.702 L16.617,19 L23.25,19 A0.75 0.75 0 0 0 23.25,17.5 L16.617,17.5 Z"/>
</svg>
